src/lib/packages/icons/src/assets/line/home-dash-shield.svg

<svg width="24" height="24" viewBox="0 0 24 24" fill="none" xmlns="http://www.w3.org/2000/svg">
<path d="M17.053 21.75H6.94805C5.37705 21.75 4.03205 20.628 3.75005 19.083L2.2951 11.0999C2.1171 10.1189 2.48408 9.11599 3.25408 8.483L9.93609 2.98995C11.1331 2.00595 12.8701 2.00595 14.0671 2.98995L20.7491 8.483C21.5191 9.11599 21.8861 10.1189 21.7081 11.0999L20.2531 19.083C19.9691 20.628 18.624 21.75 17.053 21.75ZM12.0001 3.75094C11.6041 3.75094 11.21 3.88291 10.888 4.14791L4.20611 9.64095C3.85511 9.92895 3.68807 10.385 3.77007 10.831L5.22503 18.813C5.37603 19.645 6.10107 20.249 6.94707 20.249H17.0521C17.8981 20.249 18.6221 19.645 18.7741 18.813L20.2291 10.8299C20.3101 10.3839 20.143 9.92895 19.793 9.64095L13.111 4.14791C12.79 3.88391 12.3951 3.75094 12.0001 3.75094ZM19.513 18.948H19.523H19.513ZM12.0001 18.25C11.9191 18.25 11.8381 18.2369 11.7601 18.2099C9.82206 17.5539 7.75005 15.855 7.75005 13.055V10.833C7.75005 10.499 7.97202 10.205 8.29302 10.112C10.076 9.60002 10.907 9.21294 11.669 8.82894C11.884 8.72194 12.1361 8.72202 12.3491 8.83102C13.1031 9.21702 13.9251 9.59996 15.6851 10.047C16.0181 10.131 16.2501 10.431 16.2501 10.774V13.0539C16.2501 15.8539 14.179 17.5529 12.24 18.2089C12.162 18.2369 12.0811 18.25 12.0001 18.25ZM9.25005 11.394V13.056C9.25005 15.352 11.2081 16.3789 12.0001 16.6999C12.7921 16.3789 14.7501 15.352 14.7501 13.056V11.353C13.5541 11.022 12.7601 10.706 12.0051 10.338C11.2381 10.708 10.4591 11.026 9.25005 11.394Z" fill="currentColor"/>
</svg>

<svg xmlns="http://www.w3.org/2000/svg" width="24" height="24" fill="none"><path fill="currentColor" d="M17.053 21.75H6.948a3.25 3.25 0 0 1-3.198-2.667L2.295 11.1a2.753 2.753 0 0 1 .96-2.617l6.68-5.493a3.26 3.26 0 0 1 4.131 0l6.682 5.493a2.753 2.753 0 0 1 .96 2.617l-1.456 7.983a3.254 3.254 0 0 1-3.2 2.667ZM12 3.75c-.396 0-.79.133-1.112.398L4.206 9.64a1.248 1.248 0 0 0-.436 1.19l1.455 7.982a1.75 1.75 0 0 0 1.722 1.436h10.105a1.75 1.75 0 0 0 1.722-1.436l1.455-7.983a1.25 1.25 0 0 0-.436-1.189l-6.682-5.493a1.747 1.747 0 0 0-1.11-.397Zm7.513 15.198h.01-.01ZM12 18.25a.733.733 0 0 1-.24-.04c-1.938-.656-4.01-2.355-4.01-5.155v-2.222c0-.334.222-.628.543-.721 1.783-.512 2.614-.9 3.376-1.283a.754.754 0 0 1 .68.002c.754.386 1.576.769 3.336 1.216a.749.749 0 0 1 .565.727v2.28c0 2.8-2.071 4.499-4.01 5.155a.708.708 0 0 1-.24.041Zm-2.75-6.856v1.662c0 2.296 1.958 3.323 2.75 3.644.792-.321 2.75-1.348 2.75-3.644v-1.703c-1.196-.331-1.99-.647-2.745-1.015-.767.37-1.546.688-2.755 1.056Z"/></svg>
